src/assets/filled/HederaHashgraph.svg

<?xml version="1.0" encoding="UTF-8"?>
<svg width="24" height="24" viewBox="0 0 24 24" xmlns="http://www.w3.org/2000/svg">
 <path d="m15 10.881h-6v2.25h6v-2.25z"/>
 <path d="m12 2c-5.52 0-10 4.48-10 10s4.48 10 10 10 10-4.48 10-10-4.48-10-10-10zm4.5 14.5c0 0.41-0.34 0.75-0.75 0.75s-0.75-0.34-0.75-0.75v-1.88h-6v1.88c0 0.41-0.34 0.75-0.75 0.75s-0.75-0.34-0.75-0.75v-9c0-0.41 0.34-0.75 0.75-0.75s0.75 0.34 0.75 0.75v1.88h6v-1.88c0-0.41 0.34-0.75 0.75-0.75s0.75 0.34 0.75 0.75v9z"/>
</svg>

<svg width="24" height="24" viewBox="0 0 24 24"  xmlns="http://www.w3.org/2000/svg">
<path d="M15 10.8809H9V13.1309H15V10.8809Z" />
<path d="M12 2C6.48 2 2 6.48 2 12C2 17.52 6.48 22 12 22C17.52 22 22 17.52 22 12C22 6.48 17.52 2 12 2ZM16.5 16.5C16.5 16.91 16.16 17.25 15.75 17.25C15.34 17.25 15 16.91 15 16.5V14.62H9V16.5C9 16.91 8.66 17.25 8.25 17.25C7.84 17.25 7.5 16.91 7.5 16.5V7.5C7.5 7.09 7.84 6.75 8.25 6.75C8.66 6.75 9 7.09 9 7.5V9.38H15V7.5C15 7.09 15.34 6.75 15.75 6.75C16.16 6.75 16.5 7.09 16.5 7.5V16.5Z" />
</svg>
